X: 10
T: CBA #1
C: Beverly Woods
R: freilach
S: Fiddle Hell Online 2020-11-09 handout for Klezmer Jam led by Shana Aisenberg
Z: 2020 John Chambers <jc:trillian.mit.edu>
M: 4/4
L: 1/8
K: Gm	% actually G Misheberakh
"^A"|:\
"Gm"GAB^c d^cBA | GAB^c d4 | GAB^c d^c (3BAG | A3D A3D |
ABcB A3D | AB^cB A3D | ABcB AD=E^F |[1  "Gm"G2B2 "D"A4 :|[2 "Gm"G2B2 G2B2 ||
"^B"|:\
"Cm"Bccc cBBA | "Gm"ABBB BAAG | "D"A2A2 dDE^F | "Gm"GAB^c d4 |
"Cm"Bccc cBBA | "Gm"ABBB BAAG | "D"A2A2 dDE^F | "Gm"GBA^F G4 :|


